X:1
T:La sautillante
T:La sautillante
T:Ferdinando Carulli (1770 - 1841) 
C:Ferdinando Carulli (1770 - 1841)
%%score { ( 1 2 ) | ( 3 4 ) }
L:1/8
Q:1/4=116
M:2/4
K:G
V:1 treble-8 nm="Guitar" snm="Guit."
V:2 treble-8 
V:3 tab stafflines=6 strings=E2,A2,D3,G3,B3,E4 nostems 
V:4 tab stafflines=6 strings=E2,A2,D3,G3,B3,E4 nostems 
V:1
"^Allegretto" !3!G,BA,!1!c |!2!x!4!ded |x!2!A!1!cA | GBDB | !3!G,BA,!1!c |!2!x!4!ded |x!2!A!1!cA | %7
 G2 z2 | !3!G,BA,!1!c |!2!x!4!ded |x!2!A!1!cA | GBDB | !3!G,BA,!1!c |!2!x!4!ded |x!2!A!1!cA | %15
 G2 z2 |:x!1!^GBe |xcBA |x!2!A!1!c!3!f |x!4!g!3!dB | !3!G,BA,!1!c |!2!x!4!ded |x!2!A!1!cA | %23
 G2 z2 :| %24
V:2
 G,2 A,2 | B,4 | D4 | G2 D2 | G,2 A,2 | B,4 | D4 | !3!G,2 z2 | G,2 A,2 | B,4 | D4 | G2 D2 | %12
 G,2 A,2 | B,4 | D4 | !3!G,2 z2 |: E,4 | A,4 | D4 | G4 | G,2 A,2 | B,4 | D4 | !3!G,2 z2 :| %24
V:3
 !6!G,, !2!B, !5!A,, !2!C | !5!B,, !2!D !1!E !2!D | !4!D, !3!A, !2!C !3!A, | %3
 !3!G, !2!B, !4!D, !2!B, | !6!G,, !2!B, !5!A,, !2!C | !5!B,, !2!D !1!E !2!D | %6
 !4!D, !3!A, !2!C !3!A, | !3!G,2 x2 | !6!G,, !2!B, !5!A,, !2!C | !5!B,, !2!D !1!E !2!D | %10
 !4!D, !3!A, !2!C !3!A, | !3!G, !2!B, !4!D, !2!B, | !6!G,, !2!B, !5!A,, !2!C | %13
 !5!B,, !2!D !1!E !2!D | !4!D, !3!A, !2!C !3!A, | !3!G,2 x2 |: !6!E,, !3!^G, !2!B, !1!E | %17
 !6!x !2!C !2!B, !3!A, | !4!D, !3!A, !2!C !1!F | !3!G, !1!G !2!D !2!B, | !6!G,, !2!B, !6!x !2!C | %21
 !5!B,, !2!D !1!E !2!D | !4!D, !3!A, !2!C !3!A, | !3!G,2 x2 :| %24
V:4
 !6!G,,2 !6!x2 | !6!x4 | !5!x4 | !4!x2 !5!x2 | !6!G,,2 !6!x2 | !6!x4 | !5!x4 | !6!G,,2 x2 | %8
 !6!G,,2 !6!x2 | !6!x4 | !5!x4 | !4!x2 !5!x2 | !6!G,,2 !6!x2 | !6!x4 | !5!x4 | !6!G,,2 x2 |: %16
 !6!E,,4 | !5!A,,4 | !5!x4 | !4!x4 | !6!G,,2 !5!A,,2 | !6!x4 | !5!x4 | !6!G,,2 x2 :| %24

